X:5
T:O'Neill's March
R:march
D:Chieftains Live
Z:id:hn-march-5
M:2/4
L:1/8
K:Edor
Bg fa|eg g/f/e/d/|Bg fa|eg g/f/e/d/:|
|:ed/e/ f/e/d/B/|ed/e/ f/e/d/B/:|
|:A>B G>B|Ae e/d/B/G/|A>B G>B|1 Ae e/d/B/G/:|2 Ae e/d/B/A/||
<end>
<start>
